assets/icons/reset.svg

<svg width="24" height="24" viewBox="0 0 30 30" fill="none" xmlns="http://www.w3.org/2000/svg">
<path d="M18.4799 7.60935C18.0804 7.80813 17.9177 8.29316 18.1165 8.69268C18.3152 9.09221 18.8003 9.25495 19.1998 9.05617L18.4799 7.60935ZM14.9999 7.60557V6.79757L14.9996 6.79757L14.9999 7.60557ZM9.66593 9.23996L9.2135 8.57051L9.21325 8.57067L9.66593 9.23996ZM6.13076 13.5923L6.87845 13.8986L6.87863 13.8982L6.13076 13.5923ZM5.58476 19.1951L6.37761 19.0393L6.37752 19.0389L5.58476 19.1951ZM8.21274 24.1595L8.78747 23.5915L8.78729 23.5913L8.21274 24.1595ZM13.1267 26.8138L12.9668 27.6059L12.9676 27.606L13.1267 26.8138ZM18.6731 26.2618L18.9852 27.0071L18.9856 27.007L18.6731 26.2618ZM22.981 22.6907L22.307 22.2451L22.3068 22.2454L22.981 22.6907ZM25.4078 17.3025C25.4077 16.8562 25.0458 16.4946 24.5996 16.4947C24.1534 16.4948 23.7917 16.8567 23.7918 17.3029L25.4078 17.3025ZM15.5741 2.43151C15.2601 2.1144 14.7485 2.11185 14.4314 2.42582C14.1143 2.73979 14.1117 3.25138 14.4257 3.56849L15.5741 2.43151ZM19.7999 7.84797L20.374 8.41646C20.6858 8.10158 20.6858 7.59435 20.374 7.27947L19.7999 7.84797ZM14.4257 12.1274C14.1117 12.4445 14.1143 12.9561 14.4314 13.2701C14.7485 13.5841 15.2601 13.5815 15.5741 13.2644L14.4257 12.1274ZM18.8399 8.33276C19.1998 9.05617 19.2003 9.05591 19.2008 9.05565C19.201 9.05556 19.2016 9.05529 19.2019 9.05511C19.2027 9.05474 19.2034 9.05435 19.2042 9.05395C19.2058 9.05315 19.2075 9.05229 19.2093 9.05136C19.2129 9.04952 19.217 9.04741 19.2214 9.04506C19.2303 9.04037 19.2409 9.0346 19.253 9.02778C19.2767 9.01437 19.3078 8.99581 19.3428 8.97231C19.4033 8.93166 19.5168 8.84916 19.6179 8.7219C19.7153 8.59934 19.8832 8.32761 19.8184 7.96167C19.7535 7.59584 19.5001 7.38416 19.3295 7.27983C19.0131 7.08633 18.5354 6.98444 17.9264 6.91622C17.2755 6.84329 16.3393 6.79757 14.9999 6.79757V8.41357C16.3112 8.41357 17.1804 8.45874 17.7465 8.52217C18.3546 8.59029 18.5056 8.67021 18.4864 8.6585C18.4645 8.64507 18.2769 8.52428 18.2271 8.24367C18.1774 7.96296 18.3096 7.77076 18.3529 7.71638C18.3998 7.65729 18.4406 7.6316 18.4419 7.63073C18.4473 7.6271 18.4521 7.62417 18.457 7.62141C18.4596 7.61992 18.4627 7.61823 18.4664 7.61629C18.4682 7.61532 18.4703 7.61426 18.4725 7.61311C18.4736 7.61253 18.4748 7.61193 18.476 7.61131C18.4767 7.61099 18.4773 7.61068 18.4779 7.61035C18.4783 7.61019 18.4788 7.60994 18.4789 7.60986C18.4794 7.60961 18.4799 7.60935 18.8399 8.33276ZM14.9996 6.79757C12.9373 6.79826 10.9222 7.41569 9.2135 8.57051L10.1184 9.90941C11.56 8.93508 13.2601 8.41415 15.0002 8.41357L14.9996 6.79757ZM9.21325 8.57067C7.49903 9.73013 6.16628 11.371 5.38289 13.2865L6.87863 13.8982C7.54128 12.2779 8.66862 10.89 10.1186 9.90924L9.21325 8.57067ZM5.38307 13.286C4.5964 15.2063 4.39087 17.3153 4.792 19.3513L6.37752 19.0389C6.03757 17.3134 6.21175 15.526 6.87845 13.8986L5.38307 13.286ZM4.79191 19.3508C5.19129 21.384 6.18134 23.2542 7.63819 24.7276L8.78729 23.5913C7.55391 22.344 6.71573 20.7606 6.37761 19.0393L4.79191 19.3508ZM7.63802 24.7274C9.08861 26.1953 10.9439 27.1975 12.9668 27.6059L13.2866 26.0218C11.5786 25.677 10.0122 24.8309 8.78747 23.5915L7.63802 24.7274ZM12.9676 27.606C14.9883 28.0118 17.0841 27.8032 18.9852 27.0071L18.361 25.5165C16.7576 26.188 14.99 26.3639 13.2858 26.0216L12.9676 27.606ZM18.9856 27.007C20.8913 26.2077 22.5166 24.8604 23.6553 23.1359L22.3068 22.2454C21.3445 23.7027 19.971 24.8413 18.3606 25.5167L18.9856 27.007ZM23.6551 23.1362C24.7989 21.4056 25.4084 19.3769 25.4078 17.3025L23.7918 17.3029C23.7923 19.0603 23.2759 20.779 22.307 22.2451L23.6551 23.1362ZM14.4257 3.56849L19.2257 8.41646L20.374 7.27947L15.5741 2.43151L14.4257 3.56849ZM19.2257 7.27947L14.4257 12.1274L15.5741 13.2644L20.374 8.41646L19.2257 7.27947Z" fill="#485FC7"/>
</svg>

<svg width="24" height="24" viewBox="0 0 30 30" fill="none" xmlns="http://www.w3.org/2000/svg"><path d="M18.48 7.61a.808.808 0 0 0 .72 1.446l-.72-1.447ZM15 7.605v-.808.808ZM9.666 9.24l-.453-.67.453.67ZM6.13 13.592l.747.307-.747-.307Zm-.546 5.603.793-.156-.793.156Zm2.628 4.965.574-.569-.574.569Zm4.914 2.654-.16.792.16-.792Zm5.546-.552.312.745-.312-.745Zm4.308-3.571-.674-.446.674.446Zm2.427-5.389a.808.808 0 1 0-1.616 0h1.616Zm-9.834-14.87a.808.808 0 0 0-1.148 1.136l1.148-1.136ZM19.8 7.848l.574.568a.808.808 0 0 0 0-1.137l-.574.569Zm-5.374 4.28a.808.808 0 1 0 1.148 1.136l-1.148-1.137Zm4.414-3.795.36.723h.002l.002-.002a.43.43 0 0 0 .049-.026c.024-.014.055-.032.09-.056.06-.04.174-.123.275-.25a.953.953 0 0 0 .2-.76c-.065-.366-.318-.578-.489-.682-.316-.194-.794-.296-1.403-.364-.65-.073-1.587-.118-2.926-.118v1.616c1.311 0 2.18.045 2.747.108.608.068.759.148.74.136a.613.613 0 0 1-.26-.414.664.664 0 0 1 .126-.528c.047-.059.088-.084.089-.085a.22.22 0 0 1 .024-.015l.006-.003.004-.002a.028.028 0 0 0 .003-.001l.36.723ZM15 6.798A10.34 10.34 0 0 0 9.213 8.57l.905 1.338A8.723 8.723 0 0 1 15 8.414V6.798ZM9.213 8.57a10.485 10.485 0 0 0-3.83 4.716l1.496.611a8.869 8.869 0 0 1 3.24-3.989l-.906-1.338Zm-3.83 4.715a10.597 10.597 0 0 0-.591 6.065l1.586-.312a8.98 8.98 0 0 1 .5-5.14l-1.495-.613Zm-.591 6.065c.4 2.033 1.39 3.903 2.846 5.377l1.15-1.137a8.919 8.919 0 0 1-2.41-4.552l-1.586.312Zm2.846 5.376a10.38 10.38 0 0 0 5.329 2.879l.32-1.584a8.763 8.763 0 0 1-4.5-2.43l-1.149 1.135Zm5.33 2.879c2.02.406 4.116.197 6.017-.599l-.624-1.49a8.702 8.702 0 0 1-5.075.505l-.318 1.584Zm6.018-.599a10.43 10.43 0 0 0 4.67-3.871l-1.35-.89a8.814 8.814 0 0 1-3.945 3.27l.625 1.491Zm4.67-3.87a10.574 10.574 0 0 0 1.752-5.835h-1.616a8.96 8.96 0 0 1-1.485 4.943l1.348.891Zm-9.23-19.569 4.8 4.848 1.148-1.137-4.8-4.847-1.148 1.136Zm4.8 3.711-4.8 4.848 1.148 1.137 4.8-4.848-1.148-1.137Z" fill="#485FC7"/></svg>
